actions/32/bookmark-new.svg

<?xml version="1.0" encoding="UTF-8" standalone="no"?>
<svg
   xmlns:dc="http://purl.org/dc/elements/1.1/"
   xmlns:cc="http://creativecommons.org/ns#"
   xmlns:rdf="http://www.w3.org/1999/02/22-rdf-syntax-ns#"
   xmlns:svg="http://www.w3.org/2000/svg"
   xmlns="http://www.w3.org/2000/svg"
   xmlns:xlink="http://www.w3.org/1999/xlink"
   id="svg3883"
   height="32"
   width="32"
   version="1.1">
  <defs
     id="defs3885">
    <linearGradient
       id="linearGradient4336">
      <stop
         id="stop4338"
         style="stop-color:#ffffff;stop-opacity:1"
         offset="0" />
      <stop
         id="stop4340"
         style="stop-color:#ffffff;stop-opacity:0.23529412"
         offset="0.14914785" />
      <stop
         id="stop4342"
         style="stop-color:#ffffff;stop-opacity:0.15686275"
         offset="0.67927718" />
      <stop
         id="stop4344"
         style="stop-color:#ffffff;stop-opacity:0.39215687"
         offset="1" />
    </linearGradient>
    <linearGradient
       id="linearGradient8265-821-176-38-919-66-249">
      <stop
         offset="0"
         style="stop-color:#ffffff;stop-opacity:0.27450982"
         id="stop2687" />
      <stop
         offset="1"
         style="stop-color:#ffffff;stop-opacity:0"
         id="stop2689" />
    </linearGradient>
    <linearGradient
       id="linearGradient3846">
      <stop
         offset="0"
         style="stop-color:#fff3cb;stop-opacity:1"
         id="stop3848" />
      <stop
         offset="0.26238"
         style="stop-color:#fdde76;stop-opacity:1"
         id="stop3850" />
      <stop
         offset="0.66093999"
         style="stop-color:#f9c440;stop-opacity:1"
         id="stop3852" />
      <stop
         offset="1"
         style="stop-color:#e48b20;stop-opacity:1"
         id="stop3854" />
    </linearGradient>
    <linearGradient
       id="linearGradient8838">
      <stop
         offset="0"
         style="stop-color:#000000;stop-opacity:1"
         id="stop8840" />
      <stop
         offset="1"
         style="stop-color:#000000;stop-opacity:0"
         id="stop8842" />
    </linearGradient>
    <linearGradient
       gradientTransform="matrix(0.64444615,0,0,0.64444615,2.4537238,-1.478483)"
       gradientUnits="userSpaceOnUse"
       xlink:href="#linearGradient8265-821-176-38-919-66-249"
       id="linearGradient3038"
       y2="33.95525"
       x2="15.214532"
       y1="22.292103"
       x1="11.566265" />
    <linearGradient
       gradientTransform="matrix(0.64444615,0,0,0.64444615,0.53333069,0.53325595)"
       gradientUnits="userSpaceOnUse"
       xlink:href="#linearGradient4336"
       id="linearGradient3041"
       y2="34.817116"
       x2="29.646643"
       y1="16.096981"
       x1="29.646643" />
    <radialGradient
       gradientTransform="matrix(0,1.7104018,-2.0382599,0,63.162289,-16.657885)"
       gradientUnits="userSpaceOnUse"
       xlink:href="#linearGradient3846"
       id="radialGradient3044"
       fy="25.625349"
       fx="13.138569"
       r="13.931416"
       cy="25.625349"
       cx="13.138569" />
    <radialGradient
       gradientTransform="matrix(1.4117648,0,0,0.56470513,-72.411731,23.388235)"
       gradientUnits="userSpaceOnUse"
       xlink:href="#linearGradient8838"
       id="radialGradient3049"
       fy="4.625"
       fx="62.625"
       r="10.625"
       cy="4.625"
       cx="62.625" />
    <radialGradient
       gradientTransform="matrix(0,0.68597915,-0.7462606,0,60.288383,-27.737493)"
       gradientUnits="userSpaceOnUse"
       xlink:href="#linearGradient3242-7-3-8-0-4-58-06"
       id="radialGradient3343"
       fy="48.709068"
       fx="65.325226"
       r="31.000002"
       cy="48.709068"
       cx="65.325226" />
    <linearGradient
       id="linearGradient3242-7-3-8-0-4-58-06">
      <stop
         id="stop3244-5-8-5-6-4-3-8"
         style="stop-color:#cdf87e;stop-opacity:1"
         offset="0" />
      <stop
         id="stop3246-9-5-1-5-3-0-7"
         style="stop-color:#a2e34f;stop-opacity:1"
         offset="0.26238" />
      <stop
         id="stop3248-7-2-0-7-5-35-9"
         style="stop-color:#68b723;stop-opacity:1"
         offset="0.66093999" />
      <stop
         id="stop3250-8-2-8-5-6-40-4"
         style="stop-color:#1d7e0d;stop-opacity:1"
         offset="1" />
    </linearGradient>
    <linearGradient
       gradientTransform="matrix(0.42269325,0,0,0.38513145,14.544843,15.082967)"
       gradientUnits="userSpaceOnUse"
       xlink:href="#linearGradient4154"
       id="linearGradient3030-2"
       y2="36.135799"
       x2="24.138529"
       y1="10.170639"
       x1="24.138529" />
    <linearGradient
       id="linearGradient4154">
      <stop
         offset="0"
         style="stop-color:#ffffff;stop-opacity:1"
         id="stop4156" />
      <stop
         offset="0"
         style="stop-color:#ffffff;stop-opacity:0.23529412"
         id="stop4158" />
      <stop
         offset="1"
         style="stop-color:#ffffff;stop-opacity:0.15686275"
         id="stop4160" />
      <stop
         offset="1"
         style="stop-color:#ffffff;stop-opacity:0.39215687"
         id="stop4162" />
    </linearGradient>
    <linearGradient
       gradientTransform="matrix(0.38833389,0,0,0.41842122,15.301011,14.318351)"
       gradientUnits="userSpaceOnUse"
       xlink:href="#linearGradient4333"
       id="linearGradient3030-1"
       y2="25.52846"
       x2="24.138529"
       y1="20.748587"
       x1="24.138529" />
    <linearGradient
       id="linearGradient4333">
      <stop
         id="stop4335"
         style="stop-color:#ffffff;stop-opacity:1"
         offset="0" />
      <stop
         id="stop4337"
         style="stop-color:#ffffff;stop-opacity:0.23529412"
         offset="0.00000003" />
      <stop
         id="stop4339"
         style="stop-color:#ffffff;stop-opacity:0.15686275"
         offset="1" />
      <stop
         id="stop4341"
         style="stop-color:#ffffff;stop-opacity:0.39215687"
         offset="1" />
    </linearGradient>
  </defs>
  <metadata
     id="metadata3888">
    <rdf:RDF>
      <cc:Work
         rdf:about="">
        <dc:format>image/svg+xml</dc:format>
        <dc:type
           rdf:resource="http://purl.org/dc/dcmitype/StillImage" />
        <dc:title></dc:title>
      </cc:Work>
    </rdf:RDF>
  </metadata>
  <path
     style="opacity:0.3;fill:url(#radialGradient3049);fill-opacity:1;fill-rule:evenodd;stroke:none;stroke-width:0.99999988;marker:none;visibility:visible;display:inline;overflow:visible"
     id="path8836"
     d="m 31.000038,25.999999 c 0,3.313709 -6.715729,6.000001 -15,6.000001 C 7.7157681,32 1.0000383,29.313708 1.0000383,25.999999 1.0000383,22.686292 7.7157681,20 16.000038,20 c 8.284271,0 15,2.686292 15,5.999999 l 0,0 z" />
  <path
     style="fill:url(#radialGradient3044);fill-opacity:1;fill-rule:nonzero;stroke:none;stroke-width:0.9922713;stroke-linecap:butt;stroke-linejoin:round;stroke-miterlimit:4;stroke-opacity:1;stroke-dasharray:none;stroke-dashoffset:0;marker:none;visibility:visible;display:inline;overflow:visible"
     id="path1307"
     d="m 16.000037,1.4974327 c 0.978784,0 4.13436,7.910881 4.926214,8.488271 0.791851,0.5773873 9.263652,1.1447403 9.566113,2.0789733 0.302461,0.934234 -6.219087,6.39078 -6.521548,7.325013 -0.30246,0.934233 1.777824,9.195756 0.985972,9.773145 -0.791853,0.577387 -7.977967,-3.961163 -8.956752,-3.961163 -0.978783,0 -8.1648972,4.53855 -8.9567501,3.961163 C 6.251434,28.585446 8.331718,20.323922 8.0292575,19.38969 7.7267971,18.455457 1.2052494,12.99891 1.5077102,12.064675 1.810171,11.130444 10.281971,10.563091 11.073825,9.9857037 c 0.791852,-0.57739 3.947429,-8.488271 4.926212,-8.488271 z" />
  <path
     style="opacity:0.8;fill:none;stroke:url(#linearGradient3041);stroke-width:1;stroke-linecap:butt;stroke-linejoin:round;stroke-miterlimit:4;stroke-opacity:1;stroke-dasharray:none;stroke-dashoffset:0;marker:none;visibility:visible;display:inline;overflow:visible"
     id="path3849"
     d="m 16.008597,2.928904 c -1.412439,2.674148 -2.696301,5.432298 -4.168399,8.065176 -2.9741416,0.571623 -5.9951175,1.01272 -8.9878512,1.528574 2.068776,2.127369 4.1154729,4.286762 6.1689248,6.422463 -0.027883,1.120075 -0.3297428,2.255067 -0.4115096,3.383432 -0.2151051,1.763357 -0.4094732,3.879237 -0.6636652,5.637582 2.6703322,-1.317263 5.3192342,-2.753549 8.0028352,-4.033221 2.889137,1.162973 5.624472,2.788167 8.207491,4.091509 -0.404423,-2.843686 -0.92157,-6.105122 -1.297355,-8.947299 0.677523,-0.936651 1.653369,-1.671505 2.415879,-2.553298 1.294961,-1.335342 2.582496,-2.677954 3.8899,-4.001168 C 26.202411,11.826315 23.141566,11.581333 20.170798,10.994151 19.464002,9.967625 19.007366,8.751401 18.398572,7.654132 17.60478,6.077613 16.818147,4.497431 16.008597,2.928904 z" />
  <path
     style="opacity:0.8;fill:url(#linearGradient3038);fill-opacity:1;fill-rule:nonzero;stroke:none;stroke-width:1;marker:none;visibility:visible;display:inline;overflow:visible;enable-background:accumulate"
     id="path3853"
     d="m 16.008597,2.241404 c -0.254446,0.374093 -2.346828,3.472786 -4.375,8.25 a 0.20608164,0.20608164 0 0 1 -0.03125,0.03125 0.20608164,0.20608164 0 0 1 -0.09375,0.0625 0.20608164,0.20608164 0 0 1 -0.03125,0.03125 c -3.0053008,0.490049 -7.0029861,1.038743 -9.3125002,1.6875 1.5783275,2.00052 3.5604578,3.737007 5.34375,5.5625 l 20.2500002,-3.59375 c 0.582787,-0.584147 1.71282,-1.713072 2,-2 -2.871985,-0.776885 -6.239483,-1.134102 -9.25,-1.625 a 0.20608164,0.20608164 0 0 1 -0.03125,-0.03125 0.20608164,0.20608164 0 0 1 -0.09375,-0.0625 0.20608164,0.20608164 0 0 1 -0.03125,-0.03125 C 18.827185,6.981785 16.296053,2.721672 16.008597,2.241404 z" />
  <path
     style="display:inline;overflow:visible;visibility:visible;fill:none;fill-opacity:1;fill-rule:evenodd;stroke:#956500;stroke-width:1;stroke-linecap:butt;stroke-linejoin:round;stroke-miterlimit:4;stroke-dasharray:none;stroke-dashoffset:0;stroke-opacity:1;marker:none;color:#000000;clip-rule:nonzero;opacity:0.5;isolation:auto;mix-blend-mode:normal;color-interpolation:sRGB;color-interpolation-filters:linearRGB;solid-color:#000000;solid-opacity:1;filter-blend-mode:normal;filter-gaussianBlur-deviation:0;color-rendering:auto;image-rendering:auto;shape-rendering:auto;text-rendering:auto;enable-background:accumulate"
     id="path1307-2"
     d="m 16.000037,1.4974327 c 0.978784,0 4.13436,7.910881 4.926214,8.488271 0.791851,0.5773873 9.263652,1.1447403 9.566113,2.0789733 0.302461,0.934234 -6.219087,6.39078 -6.521548,7.325013 -0.30246,0.934233 1.777824,9.195756 0.985972,9.773145 -0.791853,0.577387 -7.977967,-3.961163 -8.956752,-3.961163 -0.978783,0 -8.1648972,4.53855 -8.9567501,3.961163 C 6.251434,28.585446 8.331718,20.323922 8.0292575,19.38969 7.7267971,18.455457 1.2052494,12.99891 1.5077102,12.064675 1.810171,11.130444 10.281971,10.563091 11.073825,9.9857037 c 0.791852,-0.57739 3.947429,-8.488271 4.926212,-8.488271 z" />
  <g
     id="g4374">
    <path
       style="color:#000000;display:inline;overflow:visible;visibility:visible;fill:url(#radialGradient3343);fill-opacity:1;fill-rule:nonzero;stroke:none;stroke-width:0.98542744;stroke-linecap:round;stroke-linejoin:round;stroke-miterlimit:4;stroke-dasharray:none;stroke-dashoffset:0;stroke-opacity:1;marker:none;enable-background:accumulate"
       id="path2262"
       d="m 21.5,21.5 0,-4.021022 5,0 0,4.021022 4.007287,0 0,5 -4.007287,0 0,4.007286 -5,0 0,-4.007286 -4.007286,0 0,-5 4.007286,0 z" />
    <path
       d="m 22.5,23.003028 0,-4.503028 3,0 0,4.496972 M 25.5,25 l 0,4.5 -3,0 0,-4.5"
       id="path2272-4"
       style="display:inline;opacity:0.5;fill:none;stroke:url(#linearGradient3030-2);stroke-width:1;stroke-linecap:butt;stroke-linejoin:miter;stroke-miterlimit:4;stroke-dasharray:none;stroke-opacity:1" />
    <path
       d="m 26,22.512298 3.499869,-0.01086 0,2.987703 L 26,25.500001 m -4,0 -3.500131,-0.01086 0,-2.987703 L 22,22.512298"
       id="path2272-2"
       style="display:inline;opacity:0.5;fill:none;stroke:url(#linearGradient3030-1);stroke-width:0.99999994;stroke-linecap:butt;stroke-linejoin:miter;stroke-miterlimit:4;stroke-dasharray:none;stroke-opacity:1" />
    <path
       style="color:#000000;clip-rule:nonzero;display:inline;overflow:visible;visibility:visible;opacity:0.5;isolation:auto;mix-blend-mode:normal;color-interpolation:sRGB;color-interpolation-filters:linearRGB;solid-color:#000000;solid-opacity:1;fill:none;fill-opacity:1;fill-rule:nonzero;stroke:#0f5a00;stroke-width:1;stroke-linecap:round;stroke-linejoin:round;stroke-miterlimit:4;stroke-dasharray:none;stroke-dashoffset:0;stroke-opacity:1;marker:none;color-rendering:auto;image-rendering:auto;shape-rendering:auto;text-rendering:auto;enable-background:accumulate"
       id="path2262-9"
       d="m 21.5,21.5 0,-4.021022 5,0 0,4.021022 4.007287,0 0,5 -4.007287,0 0,4.007286 -5,0 0,-4.007286 -4.007286,0 0,-5 4.007286,0 z" />
  </g>
</svg>

<svg xmlns="http://www.w3.org/2000/svg" xmlns:xlink="http://www.w3.org/1999/xlink" viewBox="0 0 32 32"><defs><linearGradient id="b"><stop offset="0" stop-color="#fff"/><stop offset=".149" stop-color="#fff" stop-opacity=".235"/><stop offset=".679" stop-color="#fff" stop-opacity=".157"/><stop offset="1" stop-color="#fff" stop-opacity=".392"/></linearGradient><linearGradient id="a"><stop offset="0" stop-color="#fff" stop-opacity=".275"/><stop offset="1" stop-color="#fff" stop-opacity="0"/></linearGradient><linearGradient id="c"><stop offset="0" stop-color="#fff3cb"/><stop offset=".262" stop-color="#fdde76"/><stop offset=".661" stop-color="#f9c440"/><stop offset="1" stop-color="#e48b20"/></linearGradient><linearGradient id="d"><stop offset="0"/><stop offset="1" stop-opacity="0"/></linearGradient><linearGradient gradientTransform="translate(2.454 -1.478) scale(.64445)" gradientUnits="userSpaceOnUse" xlink:href="#a" id="k" y2="33.955" x2="15.215" y1="22.292" x1="11.566"/><linearGradient gradientTransform="translate(.533 .533) scale(.64445)" gradientUnits="userSpaceOnUse" xlink:href="#b" id="j" y2="34.817" x2="29.647" y1="16.097" x1="29.647"/><radialGradient gradientTransform="matrix(0 1.7104 -2.03826 0 63.162 -16.658)" gradientUnits="userSpaceOnUse" xlink:href="#c" id="i" fy="25.625" fx="13.139" r="13.931" cy="25.625" cx="13.139"/><radialGradient gradientTransform="matrix(1.41176 0 0 .5647 -72.412 23.388)" gradientUnits="userSpaceOnUse" xlink:href="#d" id="h" fy="4.625" fx="62.625" r="10.625" cy="4.625" cx="62.625"/><radialGradient gradientTransform="matrix(0 .68598 -.74626 0 60.288 -27.737)" gradientUnits="userSpaceOnUse" xlink:href="#e" id="l" fy="48.709" fx="65.325" r="31" cy="48.709" cx="65.325"/><linearGradient id="e"><stop offset="0" stop-color="#cdf87e"/><stop offset=".262" stop-color="#a2e34f"/><stop offset=".661" stop-color="#68b723"/><stop offset="1" stop-color="#1d7e0d"/></linearGradient><linearGradient gradientTransform="matrix(.4227 0 0 .38513 14.545 15.083)" gradientUnits="userSpaceOnUse" xlink:href="#f" id="m" y2="36.136" x2="24.139" y1="10.171" x1="24.139"/><linearGradient id="f"><stop offset="0" stop-color="#fff"/><stop offset="0" stop-color="#fff" stop-opacity=".235"/><stop offset="1" stop-color="#fff" stop-opacity=".157"/><stop offset="1" stop-color="#fff" stop-opacity=".392"/></linearGradient><linearGradient gradientTransform="matrix(.38833 0 0 .41842 15.3 14.318)" gradientUnits="userSpaceOnUse" xlink:href="#g" id="n" y2="25.528" x2="24.139" y1="20.749" x1="24.139"/><linearGradient id="g"><stop offset="0" stop-color="#fff"/><stop offset="0" stop-color="#fff" stop-opacity=".235"/><stop offset="1" stop-color="#fff" stop-opacity=".157"/><stop offset="1" stop-color="#fff" stop-opacity=".392"/></linearGradient></defs><path d="M31 26c0 3.314-6.716 6-15 6-8.284 0-15-2.686-15-6s6.716-6 15-6c8.284 0 15 2.686 15 6z" opacity=".3" fill="url(#h)" fill-rule="evenodd" overflow="visible"/><path d="M16 1.497c.98 0 4.134 7.91 4.926 8.49.792.576 9.264 1.143 9.566 2.078.303.934-6.22 6.39-6.52 7.325-.304.934 1.777 9.195.985 9.773-.792.577-7.978-3.96-8.957-3.96-.98 0-8.165 4.537-8.957 3.96-.792-.578 1.29-8.84.986-9.773-.306-.935-6.828-6.39-6.525-7.325.302-.935 8.774-1.502 9.566-2.08.793-.577 3.948-8.488 4.927-8.488z" fill="url(#i)" overflow="visible"/><path d="M16.01 2.93c-1.414 2.673-2.698 5.43-4.17 8.064-2.974.572-5.995 1.013-8.988 1.53 2.07 2.126 4.116 4.285 6.17 6.42-.03 1.12-.33 2.256-.412 3.385-.215 1.76-.41 3.875-.664 5.633 2.67-1.317 5.32-2.753 8.003-4.033 2.885 1.164 5.62 2.79 8.203 4.09-.404-2.84-.92-6.103-1.297-8.945.677-.937 1.652-1.67 2.415-2.553 1.296-1.336 2.583-2.678 3.89-4-2.962-.698-6.022-.943-8.993-1.53-.707-1.026-1.164-2.243-1.77-3.34-.796-1.576-1.583-3.157-2.39-4.725z" opacity=".8" fill="none" stroke="url(#j)" stroke-linejoin="round" overflow="visible"/><path d="M16.01 2.24c-.256.375-2.348 3.474-4.376 8.25a.206.206 0 0 1-.032.033.206.206 0 0 1-.093.062.206.206 0 0 1-.036.03c-3.005.49-7.003 1.04-9.312 1.69 1.578 2 3.56 3.736 5.344 5.56l20.25-3.592c.58-.584 1.71-1.713 2-2-2.873-.777-6.24-1.134-9.25-1.625a.206.206 0 0 1-.033-.032.206.206 0 0 1-.093-.062.206.206 0 0 1-.03-.03C18.826 6.98 16.295 2.72 16.01 2.24z" opacity=".8" fill="url(#k)" overflow="visible"/><path style="isolation:auto;mix-blend-mode:normal;filter-blend-mode:normal;filter-gaussianBlur-deviation:0" d="M16 1.497c.98 0 4.134 7.91 4.926 8.49.792.576 9.264 1.143 9.566 2.078.303.934-6.22 6.39-6.52 7.325-.304.934 1.777 9.195.985 9.773-.792.577-7.978-3.96-8.957-3.96-.98 0-8.165 4.537-8.957 3.96-.792-.578 1.29-8.84.986-9.773-.306-.935-6.828-6.39-6.525-7.325.302-.935 8.774-1.502 9.566-2.08.793-.577 3.948-8.488 4.927-8.488z" overflow="visible" fill="none" stroke="#956500" stroke-linejoin="round" color="#000" opacity=".5"/><path d="M21.5 21.5v-4.02h5v4.02h4.007v5H26.5v4.007h-5V26.5h-4.007v-5H21.5z" color="#000" overflow="visible" fill="url(#l)"/><path d="M22.5 23.003V18.5h3v4.497m0 2.003v4.5h-3V25" opacity=".5" fill="none" stroke="url(#m)"/><path d="M26 22.512l3.5-.01v2.987l-3.5.01m-4 0l-3.5-.01V22.5l3.5.012" opacity=".5" fill="none" stroke="url(#n)"/><path style="isolation:auto;mix-blend-mode:normal" d="M21.5 21.5v-4.02h5v4.02h4.007v5H26.5v4.007h-5V26.5h-4.007v-5H21.5z" color="#000" overflow="visible" opacity=".5" fill="none" stroke="#0f5a00" stroke-linecap="round" stroke-linejoin="round"/></svg>
